X:164
T:The Longford tinker
T:The Furze bush
R:Reel
O:Ireland
B:Irish Traditional Music Session Tunes 3 n49
S:Music from Ireland Vol. 3
B:Music from Ireland Vol. 3
Z:Transcription: Mike Long
M:C|
L:1/8
K:D
fe[|\
"Bm"dBBA B3c|"Bm"dB~B2 "A"fgef|"Bm"dBBA BABd|\
"A"ABde fdef|"Bm"dB~B2 FB~B2|
dB~B2 def^g|"A"aAA^G ~A2 FB|ABde fdef|]\
"D"dcdf "A"edfe|"D"dafa "G"gefe|"D"dafa "A"eg~g2|
"G"defa "A"gefe|"D"dafa "A"gefe|"D"dafa "G"g2dg|\
"G"bgaf gfed|"D"f2af "G"gfed|]
"D"fA~A2 "A"FAEF|"D"Dafa gfed|"G"gbba b2ba|\
"G"gbaf "A"gfed|"D"fA~A2 "A"FAde|"D"fdaf "G"g2 dg|
"G"bgaf gfed|"D"f2af "G"gfed|]\
"D"fa~a2 fa~a2|"D"faaf "A"gfed|"G"gb~b2 gb~b2|
"G"gbaf "A"gfed|"D"fa~a2 fa~a2|"D"faaf "G"g2dg|\
"G"bgaf gfed|"D"f2af "G"gfef|]
